icons/bhi_view-list.svg

<svg xmlns="http://www.w3.org/2000/svg" viewBox="0 0 512 512" enable-background="new 0 0 512 512"><path fill="#010101" d="M0 320h120.5v-128h-120.5v128zm0 160h120.5v-128h-120.5v128zm0-320h120.5v-128h-120.5v128zm150.6 160h361.4v-128h-361.4v128zm0 160h361.4v-128h-361.4v128zm0-448v128h361.4v-128h-361.4z"/></svg>

<?xml version="1.0" encoding="utf-8"?>
<!-- Generator: Adobe Illustrator 19.2.0, SVG Export Plug-In . SVG Version: 6.00 Build 0)  -->
<svg version="1.1" id="Layer_1" xmlns="http://www.w3.org/2000/svg" xmlns:xlink="http://www.w3.org/1999/xlink" x="0px" y="0px"
	 viewBox="0 0 512 512" enable-background="new 0 0 512 512" xml:space="preserve">
<path fill="#010101" d="M0,320h120.5V192H0V320z M0,480h120.5V352H0V480z M0,160h120.5V32H0V160z M150.6,320H512V192H150.6V320z
	 M150.6,480H512V352H150.6V480z M150.6,32v128H512V32H150.6z"/>
</svg>
